X: 2838
T: Barbara's Rant
R: reel
M: 4/4
K: Aminor
AB|:cAAG EAAB|cAeA fedc|BcB^G EGBE|^GBef edcB|
cAAG EAAB|cAeA fedc|BcBE ^GBed|1 cAAG A3B:|2 cAAG A3e||
|:eAce agfe|dBde gfed|eAce fedc|
[1 BcBA ^G3e|eAce agfe|dBde gfed|efec dcBd|cAAG A3e:|
[2 BcBA ^GBed|cAAG EAAB|cAeA fedc|BcBE ^GBed|cAAG A3B||

